client/public/assets/icons/standard/channel_program_members.svg

<?xml version="1.0"?><svg xmlns="http://www.w3.org/2000/svg" width="100" height="100" viewBox="0 0 100 100"><path fill="#fff" d="m48.7 68.1c0-5.9 2.8-11.2 7.2-14.5-1.3-0.6-2.6-1.2-4-1.8-4.3-1.8-4.9-3.4-4.9-5.2 0-1.8 1.2-3.4 2.6-4.7 2.5-2.3 3.9-5.4 3.9-9.1 0-6.9-4.3-12.8-11.9-12.8-7.6 0-11.9 5.9-11.9 12.8 0 3.7 1.4 6.9 3.9 9.1 1.4 1.3 2.6 3 2.6 4.7 0 1.7-0.7 3.4-4.9 5.2-6.2 2.6-12.1 5.6-12.2 11.2 0 3.7 2.8 7 6.3 7h22.7c0.3 0 0.5-0.1 0.7-0.1 0-0.6-0.1-1.2-0.1-1.8z m18.3-11.8c-6.5 0-11.9 5.3-11.9 11.9s5.4 11.9 11.9 11.9 11.9-5.3 11.9-11.9-5.3-11.9-11.9-11.9z m9.5 10.7h-3.1c-0.1-2.8-0.8-5.3-1.7-7.1 2.5 1.4 4.4 4.1 4.8 7.1z m-10.6-7.8v7.8h-2.7c0.1-3.7 1.3-6.6 2.7-7.8z m0 10.2v7.8c-1.3-1.1-2.5-4.1-2.7-7.8h2.7z m2.3 7.8v-7.8h2.8c-0.2 3.7-1.4 6.6-2.8 7.8z m0-10.2v-7.8c1.3 1.1 2.5 4.1 2.7 7.8h-2.7z m-5.8-7.1c-1 1.9-1.5 4.3-1.7 7.1h-3.1c0.4-3 2.2-5.7 4.8-7.1z m-4.8 9.5h3.1c0.1 2.8 0.8 5.3 1.7 7.1-2.6-1.5-4.4-4.1-4.8-7.1z m14 7.1c1-1.9 1.5-4.3 1.7-7.1h3.1c-0.3 3-2.2 5.6-4.8 7.1z"></path></svg>

<?xml version="1.0" encoding="utf-8"?>
<!-- Generator: Adobe Illustrator 21.1.0, SVG Export Plug-In . SVG Version: 6.00 Build 0)  -->
<svg version="1.1" id="Layer_1" xmlns="http://www.w3.org/2000/svg" xmlns:xlink="http://www.w3.org/1999/xlink" x="0px" y="0px"
	 width="100px" height="100px" viewBox="0 0 100 100" enable-background="new 0 0 100 100" xml:space="preserve">
<path fill="#FFFFFF" d="M48.7,68.1c0-5.9,2.8-11.2,7.2-14.5c-1.3-0.6-2.6-1.2-4-1.8c-4.3-1.8-4.9-3.4-4.9-5.2c0-1.8,1.2-3.4,2.6-4.7
	c2.5-2.3,3.9-5.4,3.9-9.1c0-6.9-4.3-12.8-11.9-12.8c-7.6,0-11.9,5.9-11.9,12.8c0,3.7,1.4,6.9,3.9,9.1c1.4,1.3,2.6,3,2.6,4.7
	c0,1.7-0.7,3.4-4.9,5.2c-6.2,2.6-12.1,5.6-12.2,11.2c0,3.7,2.8,7,6.3,7h22.7c0.3,0,0.5-0.1,0.7-0.1C48.8,69.3,48.7,68.7,48.7,68.1z"
	/>
<path fill="#FFFFFF" d="M67,56.3c-6.5,0-11.9,5.3-11.9,11.9S60.5,80.1,67,80.1s11.9-5.3,11.9-11.9S73.6,56.3,67,56.3z M76.5,67h-3.1
	c-0.1-2.8-0.8-5.3-1.7-7.1C74.2,61.3,76.1,64,76.5,67z M65.9,59.2V67h-2.7C63.3,63.3,64.5,60.4,65.9,59.2z M65.9,69.4v7.8
	c-1.3-1.1-2.5-4.1-2.7-7.8H65.9z M68.2,77.2v-7.8H71C70.8,73.1,69.6,76,68.2,77.2z M68.2,67v-7.8c1.3,1.1,2.5,4.1,2.7,7.8H68.2z
	 M62.4,59.9c-1,1.9-1.5,4.3-1.7,7.1h-3.1C58,64,59.8,61.3,62.4,59.9z M57.6,69.4h3.1c0.1,2.8,0.8,5.3,1.7,7.1
	C59.8,75,58,72.4,57.6,69.4z M71.6,76.5c1-1.9,1.5-4.3,1.7-7.1h3.1C76.1,72.4,74.2,75,71.6,76.5z"/>
</svg>
